X: 32154
T: Peter Piper Picked A Peck Of Pickled Peppers
R: reel
M: 4/4
K: Bdorian
fB ~B2 BcdB|ABcd e/f/e ag|fB B2 B/c/d cB|1 AB c/B/A Bcde|2 A2 cA B2 ce||
fBbB aBgB|eccd eaga|fBbB aBgB|eaga ecde|
fBbB aBfB|AecA eAce|fB ~B2 FB ~B2|ABcA Bcde||

